Adwaita++/actions/22/edit-paste-in-place.svg

<svg height="22" width="22" xmlns="http://www.w3.org/2000/svg">
  <path d="m8 1c-2.7614 0-5 2.2386-5 5s5 9 5 9 5-6.2386 5-9-2.239-5-5-5zm0 2a3 3 0 0 1 3 3 3 3 0 0 1 -3 3 3 3 0 0 1 -3-3 3 3 0 0 1 3-3z" fill="#444" transform="translate(3 3)"/>
</svg>

<svg xmlns="http://www.w3.org/2000/svg" width="22" height="22" version="1.1">
 <defs>
  <style id="current-color-scheme" type="text/css">
   .ColorScheme-Text { color:#444444; } .ColorScheme-Highlight { color:#4285f4; }
  </style>
 </defs>
 <g transform="matrix(1,0,0,1,3,3)">
  <path class="ColorScheme-Text" d="M 8 1 C 5.2386 1 3 3.2386 3 6 C 3 8.7614 8 15 8 15 C 8 15 13 8.7614 13 6 C 13 3.2386 10.761 1 8 1 z M 8 3 A 3 3 0 0 1 11 6 A 3 3 0 0 1 8 9 A 3 3 0 0 1 5 6 A 3 3 0 0 1 8 3 z" style="fill:currentColor"/>
 </g>
</svg>
